icon/lg/remix-icon.svg

<?xml version="1.0" encoding="UTF-8"?>
<svg viewBox="0 0 256 297" version="1.1" xmlns="http://www.w3.org/2000/svg" xmlns:xlink="http://www.w3.org/1999/xlink" height="1em" width="1em">
  <g stroke="none" stroke-width="1" fill="none" fill-rule="evenodd">
    <path d="M141.674538,-7.10542736e-15 C218.04743,-7.10542736e-15 256,36.3493031 256,94.4136694 C256,137.843796 229.292875,166.16709 193.214546,170.888177 C223.670152,177.025429 241.473826,194.491998 244.754554,228.952544 L245.229325,235.289856 L245.643706,241.214203 L246.00181,246.756109 L246.250531,250.934795 L246.517683,255.865245 L246.656217,258.679019 L246.853693,263.148984 L247.012965,267.370833 L247.091895,269.797544 L247.198581,273.685906 L247.290626,278.131883 L247.324005,280.280236 L247.384197,286.505871 L247.403543,293.002292 L247.40462,296.886512 L168.646185,296.886512 L168.650135,295.266478 L168.650135,295.266478 L168.678181,292.120279 L168.678181,292.120279 L168.725186,289.055223 L168.861417,281.631321 L168.895871,279.142491 L168.922852,275.239899 L168.922852,275.239899 L168.919162,272.744266 L168.896218,270.127045 L168.864335,268.072886 L168.799537,265.197081 L168.706158,262.147348 L168.580806,258.904651 L168.42009,255.449957 L168.325411,253.637163 L168.164297,250.804473 L167.978998,247.828446 L167.691838,243.623566 L167.444542,240.281862 C167.373519,239.25114 167.291291,238.24473 167.19786,237.262104 L166.996058,235.328408 C164.395177,212.50087 155.340815,203.170989 139.832974,200.059114 L138.525715,199.814028 C137.64425,199.660026 136.742867,199.52459 135.821566,199.406474 L134.424675,199.242133 C134.189371,199.216855 133.952821,199.192621 133.715026,199.169411 L132.27332,199.042283 L132.27332,199.042283 L130.801736,198.938792 L130.801736,198.938792 L129.300276,198.858003 L129.300276,198.858003 L127.785563,198.799503 L126.241612,198.761396 L124.668422,198.742777 L124.668422,198.742777 L0,198.740492 L0,136.900224 L127.619345,136.900224 C129.706029,136.900224 131.728173,136.860653 133.685777,136.779928 L135.621869,136.685425 L135.621869,136.685425 L137.514935,136.563134 L137.514935,136.563134 L139.364974,136.412701 C139.669729,136.385264 139.97269,136.35664 140.273859,136.326822 L142.05936,136.133518 C143.235352,135.995014 144.382659,135.837162 145.501284,135.659493 L147.157707,135.378069 C167.866574,131.62361 178.22062,120.630459 178.22062,99.1783057 C178.22062,75.1035054 161.354066,60.5128152 127.619345,60.5128152 L0,60.5128152 L0,-7.10542736e-15 L141.674538,-7.10542736e-15 Z M83.2762921,250.785352 C93.6094556,250.785352 97.9327877,256.522818 99.4729615,262.01452 L99.6761617,262.804225 L99.6761617,262.804225 L99.8429155,263.58653 L99.9515227,264.204367 L99.9979397,264.509915 L100.075689,265.112992 L100.134243,265.703672 L100.156667,265.993728 L100.188494,266.561991 L100.198173,266.839685 L100.205751,267.380932 L100.205751,296.886512 L0,296.886512 L0,250.785352 L83.2762921,250.785352 Z" fill="#121212" fill-rule="nonzero"/>
  </g>
</svg>

<svg width="256" height="297" xmlns="http://www.w3.org/2000/svg"><path d="M141.675 0C218.047 0 256 36.35 256 94.414c0 43.43-26.707 71.753-62.785 76.474 30.455 6.137 48.259 23.604 51.54 58.065l.474 6.337.415 5.924.358 5.542.249 4.179.267 4.93.138 2.814.198 4.47.159 4.222.079 2.427.107 3.888.092 4.446.033 2.148.06 6.226.02 6.496v3.885h-78.758l.004-1.62.028-3.147.047-3.065.136-7.424.035-2.489.027-3.902-.004-2.496-.023-2.617-.032-2.054-.064-2.876-.094-3.05-.125-3.242-.16-3.455-.096-1.813-.16-2.833-.186-2.976-.287-4.204-.247-3.342a116.56 116.56 0 0 0-.247-3.02l-.202-1.934c-2.6-22.827-11.655-32.157-27.163-35.269l-1.307-.245a60.184 60.184 0 0 0-2.704-.408l-1.397-.164c-.236-.025-.472-.05-.71-.073l-1.442-.127-1.471-.103-1.502-.081-1.514-.058-1.544-.039-1.574-.018L0 198.74V136.9h127.62c2.086 0 4.108-.04 6.066-.12l1.936-.095 1.893-.122 1.85-.15c.305-.028.608-.056.909-.086l1.785-.193a86.3 86.3 0 0 0 3.442-.475l1.657-.28c20.709-3.755 31.063-14.749 31.063-36.2 0-24.075-16.867-38.666-50.602-38.666H0V0h141.675ZM83.276 250.785c10.333 0 14.657 5.738 16.197 11.23l.203.79.167.782.109.617.046.306.078.603.058.59.023.29.031.569.01.278.008.54v29.507H0v-46.102h83.276Z" fill="#121212" fill-rule="nonzero"/></svg>
